X: 41
T:Huhtikuun polkka
T:April's Polka
M:2/4
L:1/16
C:Otto Hotakainen
R:polka
A:Finland
B:Otto Hotaisen Nuottikirja (Otto Hotakainen's Tunebook)
N:by permission of Finnish Folkmusic Institute
K:Am
"Am"VE2(CE) AAEA|AcAc eece|(agf)(e fed)(c|"E"dcB)(AB4)|\
V(~E2^D)(E .^G2)EG|(~B2^G)(B .d2)Bd\
|"Dm"~(f2.e2) "E"(edc)(B|"Am"dB)A^G A4|\
V(E2C)UE AAEA|(Ac)(Ac) eece|\
"A"(agf)(e agf)(e|"Dm"gf).f2 (f3e|fed)(e fed)(B|"Am"cBA(^G|\
"E"E2^G)B (BdcB)| "Am"(cB.A2)A4::
"C"VG2(GF ECEG) | (c>dc)(B c2e2) |
 (g2e)(g age)(g | "F"~g2f)(e "Dm"f4) |"G"(BcBA) GGG2 |
(BcBA) GGG2 | (bag)a (bag)(f | "C"~e2.d2)c4 |
VG2(GF ECEG) | (cdc)(B c2e2) |
 (g2e)(g age)(g | "F"~g2f)(e"Dm"f4) |
"G".f2G2 (f2gf | "C"edc)(d ed)c2 | "G"(G2B)(d  BdB)(d |"C" .c2)B2c4:|]
W:
W: From "Falaleiro" http://home.t-online.de/home/pheld/homepage.htm

